X:1
T: Captain Campbell (of Lochnell's) Reel
C:
R:Jig
Q:180
K:C
M:6/8
L:1/16
ef|g6 e2d2c2|a2g2a2 f2e2d2|g6 e2d2c2|B2d2c2 B2A2G2|g6 e2d2c2|a2g2a2 f2e2d2|e2f2g2 f2e2d2|e2c2c2 c4ef|
g6 e2d2c2|a2g2a2 f2e2d2|g6 e2d2c2|B2d2c2 B2A2G2|g6 e2d2c2|a2g2a2 f2e2d2|e2f2g2 f2e2d2|c6 c4EF|
G2E2G2 G2E2G2|A2F2A2 A2B2c2|G2E2G2 G2F2E2|D2E2C2 B,2A,2G,2|G2E2G2 G2E2G2|A2F2A2 A2B2c2|B2a2g2 f2e2d2|e2c2c2 c4EF|
G2E2G2 G2E2G2|A2F2A2 A2B2c2|G2E2G2 G2F2E2|D2E2C2 B,2A,2G,2|G2E2G2 A2F2A2|G2G2B2 c2A2a2|g2f2e2 f2e2d2|c4||
